src/assets/icon_close.svg

<svg width="24" height="24" viewBox="0 0 24 24" fill="none" xmlns="http://www.w3.org/2000/svg">
<rect width="24" height="24" rx="12" fill="white"/>
<path d="M18.2129 7.19336L18.457 7.37598L18.4307 7.41113L18.4336 7.41406L18.4131 7.43359L18.0332 7.94336C17.7383 8.33802 17.4489 8.67899 17.1729 8.91504L16.8877 9.16016L16.6016 9.4043C16.4434 9.53957 16.2946 9.68404 16.1553 9.83789L15.6514 10.3945C15.3575 10.7192 14.9921 10.9452 14.5869 11.084L14.1914 11.2188L13.9258 11.3096L13.8516 11.6309L13.7969 11.8604C14.0695 12.0373 14.3005 12.2703 14.4746 12.5605L14.6729 12.8926L14.8721 13.2236C14.9223 13.3075 14.9838 13.3695 15.0654 13.4199L15.3945 13.6221L15.7227 13.8242C15.9877 13.9875 16.2363 14.1713 16.4678 14.374L17.0332 14.8691C17.4175 15.2059 17.6339 15.6471 17.709 16.126L17.7363 16.3027L17.9336 16.5L17.7891 16.6436L17.8389 16.9512C17.8598 17.0846 17.8681 17.0725 17.8389 17.0039C17.8341 16.9926 17.8256 16.9757 17.8145 16.9541C17.8014 16.9289 17.7842 16.8974 17.7607 16.8633C17.7431 16.8376 17.7136 16.8013 17.6738 16.7588L17.2578 17.1748L18.0918 17.4873L17.9307 17.917L17.7783 18.0703L17.7002 18.1475C17.6116 18.2361 17.4423 18.374 17.1865 18.4297C16.9022 18.4915 16.6377 18.425 16.4404 18.3066C16.1342 18.1229 16.019 17.8364 15.998 17.7871C15.9215 17.6071 15.8844 17.4021 15.8623 17.2607L15.7334 16.4355C15.727 16.395 15.7181 16.3785 15.7168 16.376C15.7168 16.376 15.7165 16.3745 15.7148 16.373L15.1494 15.8779C15.004 15.7506 14.8453 15.6335 14.6729 15.5273L14.0166 15.123C13.6613 14.9041 13.3719 14.6106 13.1572 14.2529L12.958 13.9209L12.7588 13.5898C12.75 13.5752 12.7404 13.5613 12.7246 13.5479L12.4844 13.7588C12.2562 13.9577 12.0117 14.1391 11.7529 14.3027L11.1035 14.7139C10.9769 14.794 10.8709 14.8879 10.7822 14.9971L10.5449 15.2891L10.3076 15.582C10.0962 15.8423 9.85217 16.0704 9.5791 16.2656L9.58105 16.2666L7.93359 17.9141L7.29004 17.2695L7.23926 18.1348L7.08984 18.126L6.70898 18.1045L6.44043 17.835L6.40039 17.7949C5.96788 17.3623 6.12196 16.8375 6.16504 16.7178C6.22186 16.5599 6.30508 16.4449 6.3418 16.3965C6.42786 16.2829 6.53597 16.1758 6.62695 16.0898L6.87207 15.8574L7.11719 15.626C7.31938 15.4351 7.54278 15.2552 7.78418 15.085L8.09473 14.8652L8.40625 14.6465C8.53938 14.5526 8.65479 14.4445 8.75488 14.3213L8.99219 14.0283L9.23047 13.7363C9.45859 13.4555 9.72786 13.2172 10.0342 13.0234L10.3594 12.8174L10.6846 12.6123C10.7601 12.5645 10.8325 12.5136 10.9033 12.4619L10.4297 11.8984C10.223 11.6527 10.042 11.385 9.88672 11.0986L9.51367 10.4111C9.47206 10.3345 9.42239 10.2831 9.35547 10.2422L9.02637 10.041L8.69824 9.83984C8.45981 9.69398 8.2275 9.54092 8.00195 9.38086L7.69141 9.16113L7.38086 8.94043C7.04756 8.70379 6.72821 8.34426 6.42578 7.94434L6.04297 7.43652L6.01953 7.41406L6.02344 7.41016L6 7.38086L6.21777 7.21582L7.43359 6L7.50391 6.07031L7.55371 6.11914L7.59473 6.1748L8.02148 6.73828C8.28721 7.08965 8.45893 7.25271 8.53906 7.30957L8.84863 7.53027L9.15918 7.75C9.3471 7.88336 9.54106 8.01134 9.74121 8.13379L10.3994 8.53613C10.7711 8.76353 11.0655 9.07631 11.2725 9.45801L11.6455 10.1455C11.7388 10.3176 11.8437 10.4721 11.96 10.6104L12.0215 10.6836C12.1735 10.1146 12.5588 9.66387 13.1484 9.46191L13.5439 9.32715L13.9385 9.19141C14.0598 9.14985 14.1259 9.09912 14.168 9.05273L14.6719 8.49609C14.8684 8.27897 15.0789 8.07531 15.3018 7.88477L15.873 7.39551C15.978 7.30572 16.1622 7.10665 16.4316 6.74609L16.8545 6.17969L16.8975 6.12109L16.9492 6.07031L17.0195 6L18.2129 7.19336Z" fill="#F04523"/>
</svg>

<svg xmlns="http://www.w3.org/2000/svg" width="24" height="24" fill="none" viewBox="0 0 24 24"><rect width="24" height="24" fill="#fff" rx="12"/><path fill="#f04523" d="m18.213 7.193.244.183-.026.035.003.003-.02.02-.38.51c-.296.394-.585.735-.861.971l-.285.245-.286.244q-.238.203-.447.434l-.504.557c-.293.324-.659.55-1.064.689l-.396.135-.265.09-.074.322-.055.23c.272.176.503.41.678.7l.198.332.2.33a.56.56 0 0 0 .192.197l.33.202.328.202q.397.246.745.55l.565.495c.384.337.6.778.676 1.257l.027.177.198.197-.145.144.05.307c.02.134.03.122 0 .053a.9.9 0 0 0-.165-.245l-.416.416.834.312-.161.43-.153.153-.078.078a1.026 1.026 0 0 1-1.26.16c-.306-.185-.421-.472-.442-.52a2.3 2.3 0 0 1-.136-.527l-.129-.825c-.006-.041-.015-.058-.016-.06q0 0-.002-.003l-.566-.495a3.5 3.5 0 0 0-.476-.35l-.656-.405a2.56 2.56 0 0 1-.86-.87l-.199-.332-.2-.331a.2.2 0 0 0-.033-.042l-.24.21q-.344.3-.732.545l-.65.41q-.188.121-.32.284l-.238.292-.237.293q-.319.39-.729.684h.002l-1.647 1.648-.644-.645-.05.866-.15-.009-.381-.021-.269-.27-.04-.04c-.432-.433-.278-.958-.235-1.077.057-.158.14-.273.177-.322.086-.113.194-.22.285-.306l.245-.233.245-.231q.304-.285.667-.541l.31-.22.312-.219q.2-.14.349-.325l.237-.293.238-.292q.344-.421.804-.713l.325-.206.326-.205q.112-.071.218-.15l-.473-.564a4.8 4.8 0 0 1-.543-.8l-.373-.687a.42.42 0 0 0-.159-.169l-.329-.201-.328-.201a12 12 0 0 1-.696-.46l-.31-.219-.311-.22c-.333-.237-.653-.597-.955-.997l-.383-.507-.023-.023.003-.004L6 7.38l.218-.164L7.434 6l.07.07.05.05.04.055.427.563c.266.352.438.515.518.572l.31.22.31.22q.282.2.582.384l.658.402c.372.228.667.54.874.922l.373.688q.14.258.314.464l.061.074a1.72 1.72 0 0 1 1.127-1.222l.396-.135.394-.136a.5.5 0 0 0 .23-.138l.504-.557q.295-.325.63-.611l.571-.49c.105-.09.29-.288.559-.649l.423-.566.043-.059.051-.05.07-.071z"/></svg>
